svgs/sharp-solid/curling-stone.svg

<svg xmlns="http://www.w3.org/2000/svg" viewBox="0 0 576 512"><!--! Font Awesome Pro 6.6.0 by @fontawesome - https://fontawesome.com License - https://fontawesome.com/license (Commercial License) Copyright 2024 Fonticons, Inc. --><path d="M192 32l-32 0 0 32 0 96-64 0 0 64-32 0L0 288l0 48 576 0 0-48-64-64-32 0 0-64-256 0 0-64 160 0 32 0 0-64-32 0L192 32zM0 368l0 48 64 64 448 0 64-64 0-48L0 368z"/></svg>

<svg xmlns="http://www.w3.org/2000/svg" viewBox="0 0 576 512"><!--! Font Awesome Pro 6.4.0 by @fontawesome - https://fontawesome.com License - https://fontawesome.com/license (Commercial License) Copyright 2023 Fonticons, Inc. --><path d="M192 32H160V64v96H96v64H64L0 288v48H576V288l-64-64H480V160H224V96H384h32V32H384 192zM0 368v48l64 64H512l64-64V368H0z"/></svg>
